icons/OpenLotus/actions/16/office-chart-area-percentage.svg

<?xml version="1.0" encoding="UTF-8" standalone="no"?>
<svg
   xmlns:dc="http://purl.org/dc/elements/1.1/"
   xmlns:cc="http://creativecommons.org/ns#"
   xmlns:rdf="http://www.w3.org/1999/02/22-rdf-syntax-ns#"
   xmlns:svg="http://www.w3.org/2000/svg"
   xmlns="http://www.w3.org/2000/svg"
   xmlns:sodipodi="http://sodipodi.sourceforge.net/DTD/sodipodi-0.dtd"
   xmlns:inkscape="http://www.inkscape.org/namespaces/inkscape"
   height="16"
   viewBox="0 0 16 16"
   width="16"
   version="1.1"
   id="svg4"
   sodipodi:docname="office-chart-area-percentage.svg"
   inkscape:version="0.92+devel (1c31310676, 2017-09-09, custom)">
  <metadata
     id="metadata10">
    <rdf:RDF>
      <cc:Work
         rdf:about="">
        <dc:format>image/svg+xml</dc:format>
        <dc:type
           rdf:resource="http://purl.org/dc/dcmitype/StillImage" />
        <dc:title></dc:title>
      </cc:Work>
    </rdf:RDF>
  </metadata>
  <defs
     id="defs8">
    <style
       id="current-color-scheme"
       type="text/css">
      .ColorScheme-Text {
        color:#f2f2f2;
      }
      </style>
  </defs>
  <sodipodi:namedview
     pagecolor="#002466"
     bordercolor="#ffffff"
     inkscape:document-rotation="0"
     borderopacity="0.13333333"
     objecttolerance="10"
     gridtolerance="10"
     guidetolerance="10"
     inkscape:pageopacity="0"
     inkscape:pageshadow="2"
     inkscape:window-width="1920"
     inkscape:window-height="1027"
     id="namedview6"
     showgrid="false"
     borderlayer="true"
     inkscape:showpageshadow="false"
     inkscape:zoom="45.9375"
     inkscape:cx="7.847619"
     inkscape:cy="8"
     inkscape:window-x="0"
     inkscape:window-y="24"
     inkscape:window-maximized="1"
     inkscape:current-layer="svg4" />
  <g
     id="g868"
     inkscape:label="#office-chart-area-percentage">
    <path
       inkscape:connector-curvature="0"
       inkscape:label="#boundary"
       style="stroke:none"
       id="path2"
       stroke-width=".25455"
       stroke-linecap="round"
       fill="none"
       d="M 0,-4.9999999e-8 H 16 V 16 H 0 Z" />
    <path
       inkscape:label="#"
       inkscape:connector-curvature="0"
       id="path838"
       d="M 1.9962235,2.0000003 V 14 H 13.996223 V 13 H 2.9962235 V 2.0000003 Z"
       style="opacity:0.7;fill:#d0d0d0;fill-opacity:1;stroke:none" />
    <path
       inkscape:label="#"
       id="path836"
       d="m 4.5957031,2 v 1 h 1 v 3 h 1 V 2 h -1 z m 4.3007813,0 c -0.831,0 -1.5,0.6690001 -1.5,1.5 v 1 c 0,0.831 0.669,1.5000001 1.5,1.5 0.831,0 1.4999996,-0.669 1.4999996,-1.5 v -1 c 0,-0.8309999 -0.6689996,-1.4999999 -1.4999996,-1.5 z m 3.5996096,0 c -0.830999,0 -1.5,0.6690001 -1.5,1.5 v 1 c 0,0.831 0.669,1.5000001 1.5,1.5 0.831,0 1.5,-0.669 1.5,-1.5 v -1 c 0,-0.8309999 -0.668999,-1.4999999 -1.5,-1.5 z M 8.8964844,3 c 0.277,0 0.5,0.223 0.5,0.5 v 1 c 0,0.2770001 -0.223,0.5 -0.5,0.5 -0.277,0 -0.5,-0.223 -0.5,-0.5 v -1 c 0,-0.277 0.223,-0.5 0.5,-0.5 z m 3.5996096,0 c 0.277,0 0.5,0.223 0.5,0.5 v 1 c 0,0.2770001 -0.222999,0.5 -0.5,0.5 -0.276999,0 -0.499999,-0.223 -0.5,-0.5 v -1 c 0,-0.277 0.223,-0.5 0.5,-0.5 z"
       style="fill:#00ff00;fill-opacity:1;stroke:none"
       inkscape:connector-curvature="0" />
    <path
       inkscape:label="#"
       inkscape:connector-curvature="0"
       id="path826"
       d="m 8.5858103,7.0001019 3.5351557,3.5351561 0.002,-0.002 0.002,0.002 1.875,-1.8730467 V 7.2461957 L 12.12292,9.1231488 9.9998729,7.0001019 Z m -2.9902344,2 -2,2.0000001 H 3.0037791 v 1 H 4.001826 v -0.0078 l 0.00781,0.0078 2,-2 h 1.5917968 l 2,2 h 4.4023442 v -1 H 10.015498 L 8.0154979,9.0001019 Z"
       style="opacity:0.4;fill:#d0d0d0;fill-opacity:1;stroke:none" />
  </g>
</svg>

<svg xmlns="http://www.w3.org/2000/svg" viewBox="0 0 16 16">
  <defs id="defs3051">
    <style type="text/css" id="current-color-scheme">
      .ColorScheme-Text {
        color:#f2f2f2;
      }
      </style>
  </defs>
 <path 
     style="fill:currentColor;fill-opacity:1;stroke:none" 
     d="M 2 2 L 2 14 L 14 14 L 14 13 L 3 13 L 3 2 L 2 2 z M 4 2 L 4 3 L 5 3 L 5 6 L 6 6 L 6 2 L 5 2 L 4 2 z M 8.5 2 C 7.669 2 7 2.669 7 3.5 L 7 4.5 C 7 5.331 7.669 6 8.5 6 C 9.331 6 10 5.331 10 4.5 L 10 3.5 C 10 2.669 9.331 2 8.5 2 z M 12.5 2 C 11.669 2 11 2.669 11 3.5 L 11 4.5 C 11 5.331 11.669 6 12.5 6 C 13.331 6 14 5.331 14 4.5 L 14 3.5 C 14 2.669 13.331 2 12.5 2 z M 8.5 3 C 8.777 3 9 3.223 9 3.5 L 9 4.5 C 9 4.777 8.777 5 8.5 5 C 8.223 5 8 4.777 8 4.5 L 8 3.5 C 8 3.223 8.223 3 8.5 3 z M 12.5 3 C 12.777 3 13 3.223 13 3.5 L 13 4.5 C 13 4.777 12.777 5 12.5 5 C 12.223 5 12 4.777 12 4.5 L 12 3.5 C 12 3.223 12.223 3 12.5 3 z M 8.5898438 7 L 12.125 10.535156 L 12.126953 10.533203 L 12.128906 10.535156 L 14.003906 8.6621094 L 14.003906 7.2460938 L 12.126953 9.1230469 L 10.003906 7 L 8.5898438 7 z M 5.5996094 9 L 3.5996094 11 L 3.0078125 11 L 3.0078125 12 L 4.0058594 12 L 4.0058594 11.992188 L 4.0136719 12 L 6.0136719 10 L 7.6054688 10 L 9.6054688 12 L 14.007812 12 L 14.007812 11 L 10.019531 11 L 8.0195312 9 L 5.5996094 9 z "
     class="ColorScheme-Text"/>
</svg>
